packages/core/src/svgs/tokens/mono/TIDAL.svg

<svg width="24" height="24" viewBox="0 0 24 24" fill="none" xmlns="http://www.w3.org/2000/svg">
<path d="M22 6.26825C20.9925 6.36967 19.975 6.23734 19.0267 5.88158L18.2267 5.58158C16.1458 4.80419 13.8543 4.80419 11.7733 5.58158L10.9734 5.88158C9.48583 6.43773 7.8475 6.43773 6.36002 5.88158L5.56001 5.58158C4.4226 5.1582 3.21282 4.96337 2 5.00825V7.70826C2.899 7.66421 3.79748 7.80488 4.64 8.12159L5.44001 8.42159C7.52088 9.19898 9.8125 9.19898 11.8934 8.42159L12.6934 8.12159C14.1808 7.56545 15.8191 7.56545 17.3067 8.12159L18.1067 8.42159C19.3601 8.88826 20.6866 9.07493 22 8.97492V6.26825ZM2 16.335H22V19.0015H2V16.335ZM19.0267 11.2149C19.9866 11.575 21.0001 11.7016 22 11.6016V14.3083C20.6866 14.4083 19.3601 14.2216 18.1067 13.755L17.3067 13.4549C15.8191 12.8988 14.1808 12.8988 12.6934 13.4549L11.8934 13.755C9.8125 14.5323 7.52088 14.5323 5.44001 13.755L4.64 13.4549C3.79748 13.1382 2.899 12.9976 2 13.0416V10.3416C3.20001 10.2949 4.41334 10.4883 5.56001 10.915L6.36002 11.2149C7.84668 11.7749 9.48661 11.7749 10.9734 11.2149L11.7733 10.915C13.8543 10.1375 16.1458 10.1375 18.2267 10.915L19.0267 11.2149Z" fill="white"/>
</svg>

<svg xmlns="http://www.w3.org/2000/svg" width="24" height="24" fill="none" viewBox="0 0 24 24">
    <path fill="#fff" d="M22 6.268a6.6 6.6 0 0 1-2.973-.386l-.8-.3a9.22 9.22 0 0 0-6.454 0l-.8.3a6.6 6.6 0 0 1-4.613 0l-.8-.3A9.2 9.2 0 0 0 2 5.008v2.7a6.6 6.6 0 0 1 2.64.414l.8.3a9.22 9.22 0 0 0 6.453 0l.8-.3a6.6 6.6 0 0 1 4.614 0l.8.3A9.2 9.2 0 0 0 22 8.975zM2 16.335h20v2.666H2zm17.027-5.12a6.6 6.6 0 0 0 2.973.387v2.706a9.2 9.2 0 0 1-3.893-.553l-.8-.3a6.6 6.6 0 0 0-4.614 0l-.8.3a9.22 9.22 0 0 1-6.453 0l-.8-.3A6.6 6.6 0 0 0 2 13.042v-2.7a9.2 9.2 0 0 1 3.56.573l.8.3c1.487.56 3.127.56 4.613 0l.8-.3a9.22 9.22 0 0 1 6.454 0z"/>
</svg>
